build/img/bosch.svg

<svg width="103" height="40" viewBox="0 0 103 40" fill="none" xmlns="http://www.w3.org/2000/svg">
<path d="M10.9976 14C4.92956 14 0 18.9294 0 24.9972C0 31.0651 4.92956 35.9945 10.9976 35.9945C17.0657 35.9945 21.9953 31.0651 21.9953 24.9972C21.9953 18.9294 17.0657 14 10.9976 14ZM10.9976 34.8923C5.53516 34.8923 1.10219 30.4474 1.10219 24.9972C1.10219 19.5471 5.53516 15.1021 10.9976 15.1021C16.4601 15.1021 20.8931 19.5471 20.8931 24.9972C20.8931 30.4474 16.4601 34.8923 10.9976 34.8923Z" fill="white"/>
<path d="M14.9218 17.9472C14.8855 17.923 14.8371 17.9109 14.7886 17.9109C14.6433 17.9109 14.5343 18.0199 14.5343 18.1652V21.6049C14.5343 21.726 14.4374 21.8229 14.3162 21.8229H7.65467C7.53355 21.8229 7.44877 21.726 7.43666 21.6049V18.1652C7.43666 18.1168 7.42455 18.0804 7.40032 18.032C7.32765 17.9109 7.1702 17.8745 7.04908 17.9472C4.59035 19.4611 3.10059 22.0893 3.10059 24.9961C3.10059 27.9029 4.59035 30.5311 7.0733 32.045C7.10964 32.0692 7.15808 32.0813 7.20653 32.0813C7.35187 32.0813 7.46088 31.9723 7.46088 31.827V28.3873C7.46088 28.2662 7.55778 28.1814 7.6789 28.1693H14.3405C14.4616 28.1693 14.5585 28.2662 14.5585 28.3873V31.827C14.5585 31.8754 14.5706 31.9118 14.5948 31.9602C14.6675 32.0813 14.8249 32.1177 14.9461 32.045C17.429 30.5311 18.9188 27.9029 18.9188 24.9961C18.9188 22.0893 17.4048 19.4611 14.9218 17.9472ZM6.17702 29.3078L6.21335 29.7196L5.94689 29.3926C3.89997 26.8128 3.89997 23.1673 5.94689 20.5875L6.17702 20.2968L6.21335 20.2605L6.17702 20.6844C6.14068 21.0235 6.12857 21.3748 6.12857 21.726V28.2541C6.12857 28.6053 6.15279 28.9566 6.17702 29.3078ZM14.5343 26.6433C14.5343 26.7644 14.4374 26.8613 14.3162 26.8613H7.65467C7.53355 26.8613 7.44877 26.7644 7.43666 26.6433V23.3489C7.43666 23.2278 7.53355 23.1309 7.65467 23.1309H14.3162C14.4374 23.1309 14.5343 23.2278 14.5343 23.3489V26.6433ZM16.0361 29.3926L15.7697 29.7196L15.806 29.3078C15.8423 28.9687 15.8545 28.6174 15.8545 28.2662V21.726C15.8545 21.3748 15.8423 21.0235 15.806 20.6844L15.7939 20.5027L15.7818 20.3089V20.2605L16.0361 20.5875C17.0293 21.8229 17.5743 23.3974 17.5743 24.984C17.5743 26.5706 17.0293 28.1572 16.0361 29.3926Z" fill="white"/>
<path d="M38.5887 24.8023C38.5281 24.7781 38.4554 24.7539 38.4554 24.6812C38.4554 24.6327 38.4797 24.5964 38.5281 24.5722C38.6129 24.5359 40.7083 23.7849 40.7083 21.3142C40.7083 18.5649 38.8551 16.9298 35.7302 16.9298H28.1603V33.0866H36.4206C38.8309 33.0866 41.4229 31.3789 41.4229 28.6295C41.4229 26.0013 39.4365 25.0809 38.5887 24.8023ZM31.9755 20.2363C31.9755 20.1757 32.024 20.1273 32.0845 20.1273H35.0883C36.0815 20.1273 36.7598 20.7934 36.7598 21.7865C36.7598 22.5617 36.1542 23.3974 35.0156 23.3974H32.0845C32.024 23.3974 31.9755 23.3489 31.9755 23.2884V20.2363ZM35.0883 29.9012H32.0845C32.024 29.9012 31.9755 29.8528 31.9755 29.7922V26.5706C31.9755 26.51 32.024 26.4616 32.0845 26.4616H35.0156C36.457 26.4616 37.2806 27.0793 37.2806 28.1693C37.2806 29.2957 36.5175 29.9012 35.0883 29.9012ZM66.9912 23.361L66.4098 23.2399C65.1017 22.9614 63.83 22.6101 63.83 21.4838C63.83 20.3574 64.8837 19.8487 65.9253 19.8487C67.1486 19.8487 68.3598 20.3937 69.2803 21.3384L71.6785 18.9646C70.649 17.8261 68.8201 16.518 65.8648 16.518C62.3039 16.518 59.9057 18.5407 59.9057 21.5564C59.9057 24.7417 62.4129 25.9408 64.5203 26.3889L65.0896 26.51C67.1365 26.946 68.1055 27.2731 68.1055 28.4358C68.1055 29.4773 67.1729 30.1677 65.7921 30.1677C64.1691 30.1677 62.7278 29.4531 61.6377 28.1087L59.179 30.5189C60.4871 32.0692 62.2191 33.4741 65.8405 33.4741C68.9291 33.4741 72.0661 31.6816 72.0661 28.242C72.054 24.7175 69.6558 23.9182 66.9912 23.361ZM98.9062 16.9298V22.8402C98.9062 22.9008 98.8577 22.9492 98.7972 22.9492H93.8313C93.7707 22.9492 93.7222 22.9008 93.7222 22.8402V16.9298H89.6526V33.0866H93.7222V26.7401C93.7222 26.6796 93.7707 26.6311 93.8313 26.6311H98.7972C98.8577 26.6311 98.9062 26.6796 98.9062 26.7401V33.0866H103V16.9298H98.9062ZM81.465 29.7801C79.6361 29.7801 77.6618 28.2541 77.6618 24.8992C77.6618 21.835 79.5149 20.2363 81.3438 20.2363C82.6761 20.2363 83.6088 20.7934 84.3476 22.0288L87.4725 19.9577C85.8737 17.6081 83.9721 16.5423 81.3196 16.5423C76.1236 16.5423 73.7981 20.745 73.7981 24.8992C73.7981 29.9497 76.8745 33.4741 81.2712 33.4741C84.5414 33.4741 86.0312 32.2751 87.5936 30.0587L84.4445 27.9392C83.742 29.0777 82.9789 29.7801 81.465 29.7801ZM50.5674 16.518C46.1223 16.518 43.1428 19.9214 43.1428 24.9961C43.1428 30.0708 46.1223 33.4741 50.5674 33.4741C55.0125 33.4741 57.992 30.0708 57.992 24.9961C57.992 19.9214 55.0125 16.518 50.5674 16.518ZM50.5674 29.7801C48.3872 29.7801 46.9822 27.9029 46.9822 24.9961C46.9822 22.1014 48.3872 20.2363 50.5674 20.2363C52.7596 20.2363 54.1767 22.1014 54.1767 24.9961C54.1767 27.9029 52.7596 29.7801 50.5674 29.7801Z" fill="white"/>
</svg>

<svg width="103" height="40" viewBox="0 0 103 40" fill="none" xmlns="http://www.w3.org/2000/svg"><path d="M10.998 14C4.93 14 0 18.93 0 24.997c0 6.068 4.93 10.998 10.998 10.998s10.997-4.93 10.997-10.998S17.065 14 10.998 14zm0 20.892c-5.463 0-9.896-4.445-9.896-9.895 0-5.45 4.433-9.895 9.896-9.895 5.462 0 9.895 4.445 9.895 9.895 0 5.45-4.433 9.895-9.895 9.895z" fill="#fff"/><path d="M14.922 17.947a.244.244 0 00-.133-.036.248.248 0 00-.255.254v3.44a.217.217 0 01-.218.218H7.655c-.121 0-.206-.097-.218-.218v-3.44a.276.276 0 00-.037-.133.255.255 0 00-.35-.085 8.23 8.23 0 00-3.95 7.05c0 2.906 1.49 5.534 3.973 7.048a.244.244 0 00.134.036.248.248 0 00.254-.254v-3.44c0-.12.097-.206.218-.218h6.662c.12 0 .218.097.218.218v3.44c0 .048.012.085.036.133.072.121.23.158.351.085 2.483-1.514 3.973-4.142 3.973-7.049s-1.514-5.535-3.997-7.049zm-8.745 11.36l.036.413-.266-.327a7.08 7.08 0 010-8.806l.23-.29.036-.037-.036.424a9.94 9.94 0 00-.048 1.042v6.528c0 .351.024.703.048 1.054zm8.357-2.664a.217.217 0 01-.218.218H7.655c-.121 0-.206-.097-.218-.218V23.35c0-.121.097-.218.218-.218h6.661c.121 0 .218.097.218.218v3.294zm1.502 2.75l-.266.327.036-.412c.036-.34.049-.69.049-1.042v-6.54c0-.351-.013-.703-.049-1.042l-.012-.181-.012-.194v-.049l.254.327a7.062 7.062 0 011.538 4.397 7.096 7.096 0 01-1.538 4.409zm22.553-4.591c-.06-.024-.134-.048-.134-.12 0-.05.025-.086.073-.11.085-.036 2.18-.787 2.18-3.258 0-2.75-1.853-4.384-4.978-4.384h-7.57v16.157h8.26c2.41 0 5.003-1.708 5.003-4.458 0-2.628-1.986-3.548-2.834-3.827zm-6.613-4.566c0-.06.048-.109.108-.109h3.004c.993 0 1.672.666 1.672 1.66 0 .775-.606 1.61-1.744 1.61h-2.931a.109.109 0 01-.11-.109v-3.052zm3.112 9.665h-3.004a.109.109 0 01-.109-.109v-3.221a.11.11 0 01.11-.11h2.93c1.442 0 2.266.618 2.266 1.708 0 1.127-.764 1.732-2.193 1.732zm31.903-6.54l-.581-.121c-1.308-.279-2.58-.63-2.58-1.756 0-1.127 1.054-1.635 2.095-1.635 1.224 0 2.435.545 3.355 1.49l2.398-2.374c-1.029-1.139-2.858-2.447-5.813-2.447-3.561 0-5.96 2.023-5.96 5.038 0 3.186 2.508 4.385 4.615 4.833l.57.121c2.046.436 3.016.763 3.016 1.926 0 1.041-.933 1.732-2.314 1.732-1.623 0-3.064-.715-4.154-2.06l-2.459 2.41c1.308 1.551 3.04 2.956 6.662 2.956 3.088 0 6.225-1.792 6.225-5.232-.012-3.524-2.41-4.324-5.075-4.881zm31.915-6.431v5.91a.11.11 0 01-.109.11h-4.966a.109.109 0 01-.109-.11v-5.91h-4.07v16.157h4.07V26.74a.11.11 0 01.11-.109h4.965c.06 0 .11.049.11.11v6.346H103V16.93h-4.094zM81.465 29.78c-1.829 0-3.803-1.526-3.803-4.88 0-3.065 1.853-4.664 3.682-4.664 1.332 0 2.265.557 3.004 1.793l3.124-2.071c-1.598-2.35-3.5-3.416-6.152-3.416-5.196 0-7.522 4.203-7.522 8.357 0 5.05 3.076 8.575 7.473 8.575 3.27 0 4.76-1.199 6.323-3.415l-3.15-2.12c-.702 1.139-1.465 1.841-2.979 1.841zM50.567 16.518c-4.445 0-7.424 3.403-7.424 8.478 0 5.075 2.98 8.478 7.424 8.478 4.446 0 7.425-3.403 7.425-8.478 0-5.075-2.98-8.478-7.425-8.478zm0 13.262c-2.18 0-3.585-1.877-3.585-4.784 0-2.895 1.405-4.76 3.585-4.76 2.193 0 3.61 1.865 3.61 4.76 0 2.907-1.417 4.784-3.61 4.784z" fill="#fff"/></svg>
